X: 73
T:The Auld Rigadoo, The
M:C|
L:1/8
R:barndance
N:is a version of the irish song "the jolly beggarman
K:AMix
EAAB AB (3cBA|efec d2 cd|eAAG ABcA|B2 EF GAFG|EAAG AB (3cBA|efec ddcd|ea
a^g a=ged|1c2 A2 A2 ga :|2 c2 A2 (A2 A)e ||
|:g2 ga gfef|gfea d2 cd|eAAG ABcA|B2 EF GAFG|EAAG AB (3cBA|efec ddcd|eaa
^g a=ged |1c2  A2 A2 Ae :|2 c2 A2 A2 GA :|
